X:1
T:Title
%%score { 1 | 2 }
L:1/8
M:3/4
K:Ab
V:1 treble nm="Grand Piano"
V:2 bass 
V:1
 z2 z2[Q:1/4=94] [CA]>[DB] | [Ec]3- [Ec]/[EA]/ [FA]>[DF] | [DF]2 [CE]2 [EA]>B | c3- c/d/ c>[EA] | %4
[M:2/4] [EB]4 |[M:1/4] [CA]>[DB] |[M:3/4] [Ec]3- [Ec]/[EA]/ [FA]>[DF] | [DF]2 [CE]2 [EA]>[FB] | %8
 c3- c/A/ c>B |[M:2/4] [CA]4 |[M:1/4] c>d |[M:3/4] e3- e/c/ [GB]>[Ac] | [Gd]2 [Gd]2 [Gc]>[GB] | %13
 [FA]3- [FA]/[CA]/ [=DB]>[Dc] |[M:2/4] B4 |[M:1/4] c>d |[M:3/4] e3- e/c/ B>c | %17
 [Fd]2 [Fd]2 [DF]>[FB] | A3- A/A/ c>B |[M:2/4] [CA]4 |] %20
V:2
 z2 z2 [A,,E,]>[A,,E,] | [A,,A,]3- [A,,A,]/[D,A,]/ [D,A,]>[D,A,] | %2
 [A,,A,]2 [A,,A,]2 [C,A,]>[E,F,E] | [A,E]3- [A,E]/[A,F]/[K:bass] [A,E]>[C,A,] |[M:2/4] [E,G,]4 | %5
[M:1/4] [A,,E,]>[A,,E,] |[M:3/4] [A,,A,]3- [A,,A,]/[C,A,]/ [D,A,]>[D,A,] | %7
 [A,,A,]2 [A,,A,]2 [C,A,]>[D,G,] | [E,A,E]3- [E,A,E]/[E,A,C]/ [E,A,E]>[E,G,D] |[M:2/4] [A,,A,]4 | %10
[M:1/4][K:treble] [A,A]>[A,B,A] |[M:3/4] [A,CA]3- [A,CA]/[A,EA]/[K:bass] [E,E]>[E,C] | %12
 [E,B,]2 [E,B,]2 [E,E]>[E,D] | [F,C]3- [F,C]/[F,A,]/ [B,,F,]>[B,,A,] |[M:2/4] [E,G,E]4 | %15
[M:1/4] [A,E]>[A,B,E] |[M:3/4] [A,CE]3- [A,CE]/[A,E]/ [E,G,E]>[A,_G] | %17
 [D,A,]2 [D,A,]2 [D,A,]>[D,D] | [E,CE]3- [E,CE]/[E,CE]/ [E,A,E]>[E,G,D] |[M:2/4] [A,,A,]4 |] %20

